data/windsong.svg

<svg width="69.622" height="19.67" viewBox="0 0 69.622 19.67" xmlns="http://www.w3.org/2000/svg"><path transform="translate(0 12.46) scale(.014 -.014)" d="m835-60q-14 0-29 4.5t-15 14.5q0 4 5 11l54 68q32 41 61.5 93.5t52.5 109 36.5 109.5 13.5 94q0 28-8 50-20 47-76.5 67t-133.5 20q-9 0-18 0t-18-1q-60-2-136-15.5t-156.5-36.5-156.5-54-136.5-69.5-96.5-83-36-93.5q0-24 20-40.5t53-27 73-15.5 80-5q8 0 15.5 0.5t14.5 0.5h3q8 0 14-2t6-4q0-4-12-7-14-3-37.5-4.5t-44.5-2-30-0.5q-43 0-86 12.5t-71 36.5-28 57q0 59 32 109t86.5 90 124.5 70.5 147.5 52 153.5 33.5 143 14q14 1 26.5 1t25.5 0q82 0 150-15t109-53 41-107q0-43-17-98.5t-44-112.5-55.5-105.5-50.5-77.5q35 38 86 90t112.5 111 125.5 114l13 29q18 27 28.5 46t22 28.5 30.5 9.5q7 0 20.5-4.5t23.5-11.5 6-14q-5-10-18-24.5t-26-25.5-19-12q-13-2-28.5-27t-30-64-23.5-83.5-9-85.5q0-50 18-85t63-35q50 0 96 24t86.5 62.5 72.5 84.5 54 90q16 31 28 77.5t12 92.5q0 35-8.5 64t-29.5 46.5-57 17.5q-18 0-44-8-11 0-11 4t8 7q31 11 59 11 49 0 78-20t42-53 13-72q0-52-17.5-106t-43.5-92q-28-43-66.5-86.5t-84-79.5-96-58-102.5-22q-43 0-67 24.5t-33.5 63-9.5 79.5q0 47 8 88.5t16 60.5l10 24q-57-51-110.5-105t-94.5-101q-23-26-45.5-51.5t-22.5-38.5q-7-10-21.5-26t-27.5-29.5-18-14.5q-8-2-17-2z"/><path transform="translate(21.7 12.46) scale(.014 -.014)" d="m335 303q-18 0-18 20 0 8 4 16 3 8 20 13.5t36.5 8 30.5 2.5q9 0 9-1 0-2-10-6t-21-10-15-14q-5-13-15.5-21t-20.5-8zm-136-311q-28 0-49 10.5t-21 38.5q0 31 16.5 60t37.5 52.5 35 35.5q-9 2 3 18t35 26q6 2 11 2 11 0 22.5-5t11.5-14q0-5-4-10t-8-8q-16-12-44.5-37.5t-48.5-50.5q-37-47-37-73 0-28 45-28 37 0 72.5 11.5t66.5 27.5q49 25 91 60.5t87 71.5q2 1 5 1t3-3-4-8q-6-8-25-26.5t-47.5-41.5-63-45.5-70.5-38.5q-19-8-53.5-17t-66.5-9z"/><path transform="translate(26.054 12.46) scale(.014 -.014)" d="m134-8h-4q-10 0-10 12 0 10 4.5 20.5t5.5 13.5q8 17 25.5 45t39.5 59.5 46 60 45 46.5 36 18q4 0 16.5-6.5t18.5-10.5q5-3 5-8 0-8-7-8h-5q-3 0-6-0.5t-9-3.5q-15-7-37-25.5t-46-44-45.5-51.5-36.5-47-20-31q9 14 30 34.5t48.5 42.5 57 40.5 56.5 29.5q23 10 41 10 24 0 34.5-16t14-39.5 5.5-47.5q4-38 16-53t31-15q14 0 32 6.5t39 16.5q42 21 86.5 52.5t85.5 65.5l63 52q8 6 10 6 6 0-9.5-22.5t-50.5-51.5q-27-22-60.5-48t-70-49-73-38-68.5-15q-30 0-44.5 16.5t-20.5 41-10 49.5-12.5 41.5-28.5 16.5q-13 0-30-7t-41-24q-32-22-57.5-44.5t-46.5-43.5q-7-7-17-18t-17.5-19.5-8.5-8.5z"/><path transform="translate(33.516 12.46) scale(.014 -.014)" d="m463-15q-42-3-58.5 16.5t-16.5 48.5 12 62.5 28 58.5q-2-1-17-17t-38-39-49.5-46-53-40-46.5-20q-3-1-9-1-13 0-24.5 6.5t-19.5 16.5q-8 8-11.5 19t-3.5 22q0 28 18 59.5t45.5 61.5 59 53.5 58.5 35.5q23 9 46 9 32 0 57-17 10-7 16-15.5t7-20.5v-1q0-12-8-12-5 0-8 7-5 12-15 24.5t-33 12.5q-31 0-66.5-21t-68-53-54.5-66.5-26-61.5q-1-4-1-8t0-8q0-27 19-27 9 0 20.5 4.5t21.5 11.5q57 35 111 80.5t101 95.5q53 56 99.5 111t109.5 103q13 10 24 10 14 0 25.5-18t11.5-33q0-6-3-11-4-5-7-5-2 0-2.5 3t-1.5 6q-1 8-11 8t-22.5-6.5-17.5-9.5q-61-43-120-111-13-16-26-31.5t-25-31.5q-9-12-25-38.5t-28.5-57-12.5-54.5q0-18 10-30t35-12q50 0 94.5 23t83.5 48q75 48 144 107 3 3 5 3t2-3-4-9q-10-13-47-47.5t-92-70.5q-46-31-91-50t-101-24z"/><path transform="translate(41.468 12.46) scale(.014 -.014)" d="m319-131q-72 0-132.5 34.5t-101 89.5-54.5 116q-39 5-68.5 19t-31.5 30q0 9 5.5 15t21.5 6q14 0 31-4 21-4 31.5-15.5t13.5-21.5q45-5 121.5-11t165.5-8q-1 3-2 6t-2 6q-5 14-9 26.5t-8 22.5q-22 65-42 134.5t-17 131.5q3 55 36.5 93t85.5 61.5 111 34 112 10.5q59 0 115-9.5t101-28.5 71.5-47.5 26.5-66.5q0-27-22.5-50.5t-57.5-41.5-71.5-28-65.5-10q-6 0-9 3.5t-3 7.5q0 11 12 11 28 0 61 7.5t63.5 21.5 50 33 19.5 43q0 34-28.5 56t-73 34.5-93.5 17.5-90 5q-98 0-159.5-17t-96-43-49.5-55-18-53-3-37q0-56 16-112t35-107q4-10 10-23.5t10-25.5l4-11h32q75 0 148.5 5t137.5 18.5 110 36.5q2 1 5 1 2 0 2-2 0-5-10-13-32-22-97-37.5t-147.5-23.5-169.5-10q16-34 33-77t17-79q0-30-18-49.5t-65-19.5zm-28 39q30 0 47 15t17 44q0 27-7 60t-18 66q-80-1-155 3t-131 13q29-68 69-110.5t83.5-63.5 80.5-26q4-1 7.5-1t6.5 0z"/><path transform="translate(49.126 12.46) scale(.014 -.014)" d="m188-18q-36 0-51.5 19t-15.5 43q0 8 1 15.5t4 14.5q8 24 25 49t39 44 43 23q4 1 14.5-3.5t20-10 9.5-7.5q2-2 2.5-7.5t-6.5-0.5q-9 6-27.5-6t-37-30.5-29.5-30.5q-11-15-20.5-33.5t-9.5-33.5q0-12 8-19.5t28-7.5q5 0 10.5 0.5t12.5 1.5q20 4 49.5 18.5t62 37.5 60.5 49q17 15 32.5 35t25.5 40q-37 1-75.5 3.5t-71.5 9-53 17.5q-13 8-19 16t-6 15 4.5 11.5 9.5 4.5 9-3 7.5-6 7.5-5q38 22 75 30.5t64 8.5q31 0 55-13t28-45q2-14 0-26 17-1 34-1t32 0q30 0 62.5 4.5t60 11.5 41.5 14q7 4 11 4t4-3q0-7-16-14-22-10-67.5-20.5t-95.5-12.5q-13-1-31-1.5t-39-0.5q-10-41-41.5-77t-74-63.5-86.5-43-79-15.5zm258 219q4 11 4 23 0 17-13 29t-45 13q-34 0-65-8t-57-22q38-17 84-25t92-10z"/><path transform="translate(55.426 12.46) scale(.014 -.014)" d="m134-8h-4q-10 0-10 12 0 10 4.5 20.5t5.5 13.5q8 17 25.5 45t39.5 59.5 46 60 45 46.5 36 18q4 0 16.5-6.5t18.5-10.5q5-3 5-8 0-8-7-8h-5q-3 0-6-0.5t-9-3.5q-15-7-37-25.5t-46-44-45.5-51.5-36.5-47-20-31q9 14 30 34.5t48.5 42.5 57 40.5 56.5 29.5q23 10 41 10 24 0 34.5-16t14-39.5 5.5-47.5q4-38 16-53t31-15q14 0 32 6.5t39 16.5q42 21 86.5 52.5t85.5 65.5l63 52q8 6 10 6 6 0-9.5-22.5t-50.5-51.5q-27-22-60.5-48t-70-49-73-38-68.5-15q-30 0-44.5 16.5t-20.5 41-10 49.5-12.5 41.5-28.5 16.5q-13 0-30-7t-41-24q-32-22-57.5-44.5t-46.5-43.5q-7-7-17-18t-17.5-19.5-8.5-8.5z"/><path transform="translate(62.888 12.46) scale(.014 -.014)" d="m42-392q-21 0-43 5.5t-37.5 20.5-15.5 44q0 37 20.5 70.5t52.5 62 67 50.5q43 28 93 53t104 42 108 19q19 38 30.5 78t11.5 70q0 25-9 37-9-6-12-12-14-15-38.5-40t-55-51-61.5-44-58-18q-13 0-25.5 6t-21.5 19q-11 16-11 36 0 29 18.5 63t47 66 61 56 60.5 34q9 3 19.5 5t22.5 2q28 0 53.5-12t29.5-43v-3q0-7-3.5-11.5t-6.5-4.5q-5 0-5 8 0 5-2.5 14.5t-11.5 17.5-27 8q-31 0-68.5-21.5t-72.5-54.5-59-68-28-62q-1-4-1-7t0-6q0-29 22-29 16 0 37.5 12.5t41 27.5 27.5 22q27 23 56.5 48.5t57.5 50.5q-3 2-3 8t5.5 13.5 20.5 7.5q26 0 36-16.5t10-41.5q0-34-14.5-79.5t-33.5-86.5q24-1 50.5-8.5t31.5-25.5q2-3-1-5t-4 2q-7 14-33.5 19t-49.5 4q-8-19-16.5-35t-15.5-29q-33-60-75.5-112t-90-91.5-95-62-90.5-22.5zm-11 15q53 0 101.5 28.5t93 76.5 83.5 107.5 72 121.5q-88-10-173-55t-156-104q-43-35-62.5-66.5t-19.5-55.5 16.5-38.5 44.5-14.5z"/></svg>

<?xml version="1.0" encoding="utf-8" ?>
<svg baseProfile="tiny" height="100%" version="1.2" width="100%" xmlns="http://www.w3.org/2000/svg" xmlns:ev="http://www.w3.org/2001/xml-events" xmlns:xlink="http://www.w3.org/1999/xlink"><defs /><g><path d="M835 -60Q821 -60 806.0 -55.5Q791 -51 791 -41Q791 -37 796 -30L850 38Q882 79 911.5 131.5Q941 184 964.0 240.5Q987 297 1000.5 350.0Q1014 403 1014 444Q1014 472 1006 494Q986 541 929.5 561.0Q873 581 796 581Q787 581 778.0 581.0Q769 581 760 580Q700 578 624.0 564.5Q548 551 467.5 528.0Q387 505 311.0 474.0Q235 443 174.5 404.5Q114 366 78.0 321.5Q42 277 42 228Q42 204 62.0 187.5Q82 171 115.0 160.5Q148 150 188.0 145.0Q228 140 268 140Q276 140 283.5 140.5Q291 141 298 141H301Q309 141 315.0 139.0Q321 137 321 135Q321 131 309 128Q295 125 271.5 123.5Q248 122 227.0 121.5Q206 121 197 121Q154 121 111.0 133.5Q68 146 40.0 170.0Q12 194 12 227Q12 286 44.0 336.0Q76 386 130.5 426.0Q185 466 255.0 496.5Q325 527 402.5 548.5Q480 570 556.0 582.0Q632 594 699 596Q713 597 725.5 597.0Q738 597 751 597Q833 597 901.0 582.0Q969 567 1010.0 529.0Q1051 491 1051 422Q1051 379 1034.0 323.5Q1017 268 990.0 211.0Q963 154 934.5 105.5Q906 57 884 28Q919 66 970.0 118.0Q1021 170 1082.5 229.0Q1144 288 1208 343L1221 372Q1239 399 1249.5 418.0Q1260 437 1271.5 446.5Q1283 456 1302 456Q1309 456 1322.5 451.5Q1336 447 1346.0 440.0Q1356 433 1352 426Q1347 416 1334.0 401.5Q1321 387 1308.0 376.0Q1295 365 1289 364Q1276 362 1260.5 337.0Q1245 312 1230.5 273.0Q1216 234 1207.0 189.5Q1198 145 1198 104Q1198 54 1216.0 19.0Q1234 -16 1279 -16Q1329 -16 1375.0 8.0Q1421 32 1461.5 70.5Q1502 109 1534.0 155.0Q1566 201 1588 245Q1604 276 1616.0 322.5Q1628 369 1628 415Q1628 450 1619.5 479.0Q1611 508 1590.0 525.5Q1569 543 1533 543Q1515 543 1489 535Q1478 535 1478 539Q1478 543 1486 546Q1517 557 1545 557Q1594 557 1623.0 537.0Q1652 517 1665.0 484.0Q1678 451 1678 412Q1678 360 1660.5 306.0Q1643 252 1617 214Q1589 171 1550.5 127.5Q1512 84 1466.5 48.0Q1421 12 1370.5 -10.0Q1320 -32 1268 -32Q1225 -32 1201.0 -7.5Q1177 17 1167.5 55.5Q1158 94 1158 135Q1158 182 1166.0 223.5Q1174 265 1182 284L1192 308Q1135 257 1081.5 203.0Q1028 149 987 102Q964 76 941.5 50.5Q919 25 919 12Q912 2 897.5 -14.0Q883 -30 870.0 -43.5Q857 -57 852 -58Q844 -60 835 -60Z" transform="translate(0.0, 72) scale(0.072, -0.072)" /><path d="M335 303Q317 303 317 323Q317 331 321 339Q324 347 341.0 352.5Q358 358 377.5 360.5Q397 363 408 363Q417 363 417 362Q417 360 407.0 356.0Q397 352 386.0 346.0Q375 340 371 332Q366 319 355.5 311.0Q345 303 335 303ZM199 -8Q171 -8 150.0 2.5Q129 13 129 41Q129 72 145.5 101.0Q162 130 183.0 153.5Q204 177 218 189Q209 191 221.0 207.0Q233 223 256 233Q262 235 267 235Q278 235 289.5 230.0Q301 225 301 216Q301 211 297.0 206.0Q293 201 289 198Q273 186 244.5 160.5Q216 135 196 110Q159 63 159 37Q159 9 204 9Q241 9 276.5 20.5Q312 32 343 48Q392 73 434.0 108.5Q476 144 521 180Q523 181 526 181Q529 181 529 178Q529 175 525 170Q519 162 500.0 143.5Q481 125 452.5 102.0Q424 79 389.5 56.5Q355 34 319 18Q300 10 265.5 1.0Q231 -8 199 -8Z" transform="translate(111.6, 72) scale(0.072, -0.072)" /><path d="M134 -8H130Q120 -8 120 4Q120 14 124.5 24.5Q129 35 130 38Q138 55 155.5 83.0Q173 111 195.0 142.5Q217 174 241.0 202.5Q265 231 286.0 249.0Q307 267 322 267Q326 267 338.5 260.5Q351 254 357 250Q362 247 362 242Q362 234 355 234H350Q347 234 344.0 233.5Q341 233 335 230Q320 223 298.0 204.5Q276 186 252.0 160.5Q228 135 206.5 109.0Q185 83 170.0 62.0Q155 41 150 31Q159 45 180.0 65.5Q201 86 228.5 108.0Q256 130 285.5 148.5Q315 167 342 178Q365 188 383 188Q407 188 417.5 172.0Q428 156 431.5 132.5Q435 109 437 85Q441 47 453.0 32.0Q465 17 484 17Q498 17 516.0 23.5Q534 30 555 40Q597 61 641.5 92.5Q686 124 727 158L790 210Q798 216 800 216Q806 216 790.5 193.5Q775 171 740 142Q713 120 679.5 94.0Q646 68 609.5 45.0Q573 22 536.5 7.0Q500 -8 468 -8Q438 -8 423.5 8.5Q409 25 403.0 49.5Q397 74 393.0 99.0Q389 124 380.5 140.5Q372 157 352 157Q339 157 322.0 150.0Q305 143 281 126Q249 104 223.5 81.5Q198 59 177 38Q170 31 160.0 20.0Q150 9 142.5 0.5Q135 -8 134 -8Z" transform="translate(133.992, 72) scale(0.072, -0.072)" /><path d="M463 -15Q421 -18 404.5 1.5Q388 21 388 50Q388 79 400.0 112.5Q412 146 428 171Q426 170 411.0 154.0Q396 138 373.0 115.0Q350 92 323.5 69.0Q297 46 270.5 29.0Q244 12 224 9Q221 8 215 8Q202 8 190.5 14.5Q179 21 171 31Q163 39 159.5 50.0Q156 61 156 72Q156 100 174.0 131.5Q192 163 219.5 193.0Q247 223 278.5 246.5Q310 270 337 282Q360 291 383 291Q415 291 440 274Q450 267 456.0 258.5Q462 250 463 238V237Q463 225 455 225Q450 225 447 232Q442 244 432.0 256.5Q422 269 399 269Q368 269 332.5 248.0Q297 227 264.5 195.0Q232 163 210.0 128.5Q188 94 184 67Q183 63 183.0 59.0Q183 55 183 51Q183 24 202 24Q211 24 222.5 28.5Q234 33 244 40Q301 75 355.0 120.5Q409 166 456 216Q509 272 555.5 327.0Q602 382 665 430Q678 440 689 440Q703 440 714.5 422.0Q726 404 726 389Q726 383 723 378Q719 373 716 373Q714 373 713.5 376.0Q713 379 712 382Q711 390 701 390Q691 390 678.5 383.5Q666 377 661 374Q600 331 541 263Q528 247 515.0 231.5Q502 216 490 200Q481 188 465.0 161.5Q449 135 436.5 104.5Q424 74 424 50Q424 32 434.0 20.0Q444 8 469 8Q519 8 563.5 31.0Q608 54 647 79Q722 127 791 186Q794 189 796 189Q798 189 798 186Q798 183 794 177Q784 164 747.0 129.5Q710 95 655 59Q609 28 564.0 9.0Q519 -10 463 -15Z" transform="translate(172.368, 72) scale(0.072, -0.072)" /><path d="M319 -131Q247 -131 186.5 -96.5Q126 -62 85.5 -7.0Q45 48 31 109Q-8 114 -37.5 128.0Q-67 142 -69 158Q-69 167 -63.5 173.0Q-58 179 -42 179Q-28 179 -11 175Q10 171 20.5 159.5Q31 148 34 138Q79 133 155.5 127.0Q232 121 321 119Q320 122 319.0 125.0Q318 128 317 131Q312 145 308.0 157.5Q304 170 300 180Q278 245 258.0 314.5Q238 384 241 446Q244 501 277.5 539.0Q311 577 363.0 600.5Q415 624 474.0 634.5Q533 645 586 645Q645 645 701.0 635.5Q757 626 802.0 607.0Q847 588 873.5 559.5Q900 531 900 493Q900 466 877.5 442.5Q855 419 820.0 401.0Q785 383 748.5 373.0Q712 363 683 363Q677 363 674.0 366.5Q671 370 671 374Q671 385 683 385Q711 385 744.0 392.5Q777 400 807.5 414.0Q838 428 857.5 447.0Q877 466 877 490Q877 524 848.5 546.0Q820 568 775.5 580.5Q731 593 682.0 598.0Q633 603 592 603Q494 603 432.5 586.0Q371 569 336.5 543.0Q302 517 287.0 488.0Q272 459 269.0 435.0Q266 411 266 398Q266 342 282.0 286.0Q298 230 317 179Q321 169 327.0 155.5Q333 142 337 130L341 119H373Q448 119 521.5 124.0Q595 129 659.0 142.5Q723 156 769 179Q771 180 774 180Q776 180 776 178Q776 173 766 165Q734 143 669.0 127.5Q604 112 521.5 104.0Q439 96 352 94Q368 60 385.0 17.0Q402 -26 402 -62Q402 -92 384.0 -111.5Q366 -131 319 -131ZM291 -92Q321 -92 338.0 -77.0Q355 -62 355 -33Q355 -6 348.0 27.0Q341 60 330 93Q250 92 175.0 96.0Q100 100 44 109Q73 41 113.0 -1.5Q153 -44 196.5 -65.0Q240 -86 277 -91Q281 -92 284.5 -92.0Q288 -92 291 -92Z" transform="translate(213.26399999999998, 72) scale(0.072, -0.072)" /><path d="M188 -18Q152 -18 136.5 1.0Q121 20 121 44Q121 52 122.0 59.5Q123 67 126 74Q134 98 151.0 123.0Q168 148 190.0 167.0Q212 186 233 190Q237 191 247.5 186.5Q258 182 267.5 176.5Q277 171 277 169Q279 167 279.5 161.5Q280 156 273 161Q264 167 245.5 155.0Q227 143 208.5 124.5Q190 106 179 94Q168 79 158.5 60.5Q149 42 149 27Q149 15 157.0 7.5Q165 0 185 0Q190 0 195.5 0.5Q201 1 208 2Q228 6 257.5 20.5Q287 35 319.5 58.0Q352 81 380 107Q397 122 412.5 142.0Q428 162 438 182Q401 183 362.5 185.5Q324 188 291.0 194.5Q258 201 238 212Q225 220 219.0 228.0Q213 236 213 243Q213 250 217.5 254.5Q222 259 227 259Q232 259 236 256Q240 253 243.5 250.0Q247 247 251 245Q289 267 326.0 275.5Q363 284 390 284Q421 284 445.0 271.0Q469 258 473 226Q475 212 473 200Q490 199 507.0 199.0Q524 199 539 199Q569 199 601.5 203.5Q634 208 661.5 215.0Q689 222 703 229Q710 233 714 233Q718 233 718 230Q718 223 702 216Q680 206 634.5 195.5Q589 185 539 183Q526 182 508.0 181.5Q490 181 469 181Q459 140 427.5 104.0Q396 68 353.5 40.5Q311 13 267.0 -2.5Q223 -18 188 -18ZM446 201Q450 212 450 224Q450 241 437.0 253.0Q424 265 392 266Q358 266 327.0 258.0Q296 250 270 236Q308 219 354.0 211.0Q400 203 446 201Z" transform="translate(252.64799999999997, 72) scale(0.072, -0.072)" /><path d="M134 -8H130Q120 -8 120 4Q120 14 124.5 24.5Q129 35 130 38Q138 55 155.5 83.0Q173 111 195.0 142.5Q217 174 241.0 202.5Q265 231 286.0 249.0Q307 267 322 267Q326 267 338.5 260.5Q351 254 357 250Q362 247 362 242Q362 234 355 234H350Q347 234 344.0 233.5Q341 233 335 230Q320 223 298.0 204.5Q276 186 252.0 160.5Q228 135 206.5 109.0Q185 83 170.0 62.0Q155 41 150 31Q159 45 180.0 65.5Q201 86 228.5 108.0Q256 130 285.5 148.5Q315 167 342 178Q365 188 383 188Q407 188 417.5 172.0Q428 156 431.5 132.5Q435 109 437 85Q441 47 453.0 32.0Q465 17 484 17Q498 17 516.0 23.5Q534 30 555 40Q597 61 641.5 92.5Q686 124 727 158L790 210Q798 216 800 216Q806 216 790.5 193.5Q775 171 740 142Q713 120 679.5 94.0Q646 68 609.5 45.0Q573 22 536.5 7.0Q500 -8 468 -8Q438 -8 423.5 8.5Q409 25 403.0 49.5Q397 74 393.0 99.0Q389 124 380.5 140.5Q372 157 352 157Q339 157 322.0 150.0Q305 143 281 126Q249 104 223.5 81.5Q198 59 177 38Q170 31 160.0 20.0Q150 9 142.5 0.5Q135 -8 134 -8Z" transform="translate(285.04799999999994, 72) scale(0.072, -0.072)" /><path d="M42 -392Q21 -392 -1.0 -386.5Q-23 -381 -38.5 -366.0Q-54 -351 -54 -322Q-54 -285 -33.5 -251.5Q-13 -218 19.0 -189.5Q51 -161 86 -139Q129 -111 179.0 -86.0Q229 -61 283.0 -44.0Q337 -27 391 -25Q410 13 421.5 53.0Q433 93 433 123Q433 148 424 160Q415 154 412 148Q398 133 373.5 108.0Q349 83 318.5 57.0Q288 31 257.0 13.0Q226 -5 199 -5Q186 -5 173.5 1.0Q161 7 152 20Q141 36 141 56Q141 85 159.5 119.0Q178 153 206.5 185.0Q235 217 267.5 241.0Q300 265 328 275Q337 278 347.5 280.0Q358 282 370 282Q398 282 423.5 270.0Q449 258 453 227V224Q453 217 449.5 212.5Q446 208 443 208Q438 208 438 216Q438 221 435.5 230.5Q433 240 424.0 248.0Q415 256 397 256Q366 256 328.5 234.5Q291 213 256.0 180.0Q221 147 197.0 112.0Q173 77 169 50Q168 46 168.0 43.0Q168 40 168 37Q168 8 190 8Q206 8 227.5 20.5Q249 33 268.5 48.0Q288 63 296 70Q323 93 352.5 118.5Q382 144 410 169Q407 171 407 177Q407 183 412.5 190.5Q418 198 433 198Q459 198 469.0 181.5Q479 165 479 140Q479 106 464.5 60.5Q450 15 431 -26Q455 -27 481.5 -34.5Q508 -42 513 -60Q515 -63 512.0 -65.0Q509 -67 508 -63Q501 -49 474.5 -44.0Q448 -39 425 -40Q417 -59 408.5 -75.0Q400 -91 393 -104Q360 -164 317.5 -216.0Q275 -268 227.5 -307.5Q180 -347 132.5 -369.5Q85 -392 42 -392ZM31 -377Q84 -377 132.5 -348.5Q181 -320 225.5 -272.0Q270 -224 309.0 -164.5Q348 -105 381 -43Q293 -53 208.0 -98.0Q123 -143 52 -202Q9 -237 -10.5 -268.5Q-30 -300 -30 -324Q-30 -348 -13.5 -362.5Q3 -377 31 -377Z" transform="translate(323.4239999999999, 72) scale(0.072, -0.072)" /></g></svg>
